X:389
%%etbk:tnset id:64,pos:7,rep:2x,ant:
%%etbk:tnset id:111,pos:2,rep:3x,ant:
%%etbk:tnset id:258,pos:4,rep:2x+1A-Stop,ant:
%%etbk:tnset id:377,pos:2,rep:3x,ant:
%%etbk:pldat 2016-08-17T16:27,2016-08-16T16:30,2016-08-09T15:27,2016-06-23T18:27,2016-06-22T16:20,2016-06-21T16:24,2016-06-21T16:14,2016-05-19T18:46,2016-05-18T16:37,2016-05-17T16:09,2016-05-16T14:43,2016-05-14T16:00,2016-05-10T18:29,2016-05-05T14:50,2016-05-04T15:13,2016-05-02T18:46,2016-04-09T15:39,2016-04-07T16:45,2016-04-05T16:14,2016-03-30T16:54,2016-03-05T15:06,2016-03-05T13:54,2016-02-27T15:00,2015-11-20T16:20,2015-11-18T16:10,2015-11-17T16:29,2015-11-15T14:25,2015-11-14T15:12,2015-11-08T13:29,2015-10-28T17:06,2015-10-25T14:58,2015-09-10T16:30,2015-09-09T16:51,2015-09-03T16:42,2015-09-02T16:40,2015-09-01T16:33,2015-08-31T18:55,2015-08-30T14:49,2015-08-26T15:56,2015-08-06T17:53,2015-08-05T16:32,2015-08-04T16:58,2015-08-03T18:32,2015-08-02T11:34,2015-07-31T17:46,2015-07-27T18:26,2015-06-23T18:42,2015-06-18T19:03,2015-06-16T16:25,2015-04-16T19:19,2015-04-15T16:45,2015-04-13T18:57,2015-04-12T11:26,2015-04-11T14:41,2015-03-19T19:16,2015-03-18T16:45,2015-03-16T19:37,2015-03-15T14:24,2015-03-11T16:04,2015-03-04T16:07,2015-02-22T15:45,2015-02-21T17:04,2015-02-19T19:52,2015-02-18T16:17,2015-02-17T16:21,2015-02-16T18:21,2015-02-13T18:43,2015-02-11T16:58,2015-02-10T17:08,2014-10-29T17:15,2014-10-28T15:23,2014-10-23T18:31,2014-08-21T19:21,2014-08-21T19:11,2014-08-18T19:20,2014-08-18T18:39,2014-06-22T16:43,2014-06-11T16:52,2014-05-28T16:50,2014-02-26T16:46,2014-02-05T16:02,2013-10-30T17:01,2013-10-29T16:18,2013-10-26T16:58,2013-10-18T15:30,2013-10-04T16:49
T: Britches Full Of Stitches, The
Z: Piano Box Version by Martin Fleischmann
H: Created 2013-02-19 /  Last Modified 2013-02-19
M: 2/4
L: 1/8
R: polka
K:Amaj
|: "A"!1!A>B !3!cA | !3!(3cBA cA | !1!A>B cA | !3!(3cB!1!A "D"!2!F2 | "A"!1!A>B cA | !2!BA !3!c!5!e | !1!A>B !1!A!2!F | {A}F!1!E E2:|
|: "A"!4!e>f e!3!c | !2!BA B!3!c | !4!e>f e!3!c | !2!B!1!A "D"!2!F2 | "A"!4!e>f e!3!c | !2!BA Bc | !1!A>B !1!A!2!F | {A}F!1!E E2:|


